src/images_karasa_jaga_svg/cmd/32/fontworkshapetype.fontwork-circle-curve.svg

<svg height="32" viewBox="0 0 32 32" width="32" xmlns="http://www.w3.org/2000/svg" xmlns:xlink="http://www.w3.org/1999/xlink"><linearGradient id="a" gradientUnits="userSpaceOnUse" x1=".019531" x2="127.98047" y1="63.999996" y2="63.999996"><stop offset="0" stop-color="#7c9fcf"/><stop offset=".5" stop-color="#7c9ece"/><stop offset="1" stop-color="#7b9dcf"/></linearGradient><linearGradient id="b" gradientUnits="userSpaceOnUse" x1="64" x2="64" y1="124" y2="0"><stop offset="0" stop-color="#fff"/><stop offset=".53340602" stop-color="#fff"/><stop offset=".9375" stop-color="#f1f1f1"/><stop offset=".96875" stop-color="#eaeaea"/><stop offset="1" stop-color="#dfdfdf"/></linearGradient><g transform="scale(.25)"><path d="m64 .01953125c-16.750244-.0000887-33.397976 6.89407055-45.242188 18.73828075-11.8442102 11.844212-18.73836945 28.491944-18.73828075 45.242188-.0000887 16.750244 6.89407055 33.397979 18.73828075 45.24219 11.844212 11.84421 28.491944 18.73837 45.242188 18.73828 16.750244.00009 33.397979-6.89407 45.24219-18.73828 11.84421-11.844212 18.73837-28.491946 18.73828-45.24219.00009-16.750244-6.89407-33.397976-18.73828-45.242188-11.844212-11.8442102-28.491946-18.73836945-45.24219-18.73828075zm0 19.98046875a44 44 0 0 1 44 44 44 44 0 0 1 -44 44 44 44 0 0 1 -44-44 44 44 0 0 1 44-44z" fill="url(#a)"/><path d="m64 4c-33.137158-.0001756-60.0001756 26.862842-60 60-.0001756 33.137158 26.862842 60.00018 60 60 33.137158.00018 60.00018-26.862842 60-60 .00018-33.137158-26.862842-60.0001756-60-60zm0 12a48 48 0 0 1 48 48 48 48 0 0 1 -48 48 48 48 0 0 1 -48-48 48 48 0 0 1 48-48z" fill="url(#b)"/></g></svg>

<?xml version="1.0" encoding="UTF-8" standalone="no"?>
<!-- Created with Inkscape (http://www.inkscape.org/) -->

<svg
   xmlns:dc="http://purl.org/dc/elements/1.1/"
   xmlns:cc="http://creativecommons.org/ns#"
   xmlns:rdf="http://www.w3.org/1999/02/22-rdf-syntax-ns#"
   xmlns:svg="http://www.w3.org/2000/svg"
   xmlns="http://www.w3.org/2000/svg"
   xmlns:xlink="http://www.w3.org/1999/xlink"
   xmlns:sodipodi="http://sodipodi.sourceforge.net/DTD/sodipodi-0.dtd"
   xmlns:inkscape="http://www.inkscape.org/namespaces/inkscape"
   version="1.1"
   id="svg2"
   width="128"
   height="128"
   viewBox="0 0 128 128"
   sodipodi:docname="fontworkshapetype.fontwork-circle-curve.svg"
   inkscape:export-filename="/home/rizmut/Dokumen/Rizmut/Github/libreoffice-style-karasa-jaga/build/images_karasa_jaga/cmd/32/fontworkshapetype.fontwork-circle-curve.png"
   inkscape:export-xdpi="24"
   inkscape:export-ydpi="24"
   inkscape:version="0.92.3 (unknown)">
  <metadata
     id="metadata8">
    <rdf:RDF>
      <cc:Work
         rdf:about="">
        <dc:format>image/svg+xml</dc:format>
        <dc:type
           rdf:resource="http://purl.org/dc/dcmitype/StillImage" />
        <dc:title></dc:title>
      </cc:Work>
    </rdf:RDF>
  </metadata>
  <defs
     id="defs6">
    <linearGradient
       id="linearGradient7422">
      <stop
         style="stop-color:#7c9fcf;stop-opacity:1"
         offset="0"
         id="stop7424" />
      <stop
         id="stop5348"
         offset="0.5"
         style="stop-color:#7c9ece;stop-opacity:1" />
      <stop
         id="stop7426"
         offset="1"
         style="stop-color:#7b9dcf;stop-opacity:1" />
    </linearGradient>
    <linearGradient
       id="linearGradient3369">
      <stop
         id="stop3372"
         offset="0"
         style="stop-color:#ffffff;stop-opacity:1;" />
      <stop
         style="stop-color:#ffffff;stop-opacity:1;"
         offset="0.53340602"
         id="stop3374" />
      <stop
         style="stop-color:#f1f1f1;stop-opacity:1;"
         offset="0.9375"
         id="stop3376" />
      <stop
         id="stop3378"
         offset="0.96875"
         style="stop-color:#eaeaea;stop-opacity:1;" />
      <stop
         id="stop3384"
         offset="1"
         style="stop-color:#dfdfdf;stop-opacity:1;" />
    </linearGradient>
    <linearGradient
       inkscape:collect="always"
       xlink:href="#linearGradient7422"
       id="linearGradient856"
       x1="-0.19921875"
       y1="64"
       x2="128.19922"
       y2="64"
       gradientUnits="userSpaceOnUse"
       gradientTransform="matrix(0.9965926,0,0,0.9965926,0.21807117,0.21807117)" />
    <linearGradient
       inkscape:collect="always"
       xlink:href="#linearGradient3369"
       id="linearGradient865"
       x1="64"
       y1="124"
       x2="64"
       y2="0"
       gradientUnits="userSpaceOnUse" />
  </defs>
  <sodipodi:namedview
     pagecolor="#ffffff"
     bordercolor="#666666"
     borderopacity="1"
     objecttolerance="10"
     gridtolerance="10"
     guidetolerance="10"
     inkscape:pageopacity="0"
     inkscape:pageshadow="2"
     inkscape:window-width="1366"
     inkscape:window-height="706"
     id="namedview4"
     showgrid="true"
     inkscape:snap-page="true"
     inkscape:snap-global="true"
     inkscape:zoom="2.0000001"
     inkscape:cx="38.556696"
     inkscape:cy="46.745108"
     inkscape:window-x="0"
     inkscape:window-y="0"
     inkscape:window-maximized="1"
     inkscape:current-layer="svg2"
     inkscape:snap-smooth-nodes="true">
    <inkscape:grid
       type="xygrid"
       id="grid848"
       spacingx="4"
       spacingy="4"
       empspacing="2" />
  </sodipodi:namedview>
  <g
     id="g934">
    <path
       id="path20806"
       d="M 64 0.01953125 C 47.249756 0.01944255 30.602024 6.9136018 18.757812 18.757812 C 6.9136018 30.602024 0.01944255 47.249756 0.01953125 64 C 0.01944255 80.750244 6.9136018 97.397979 18.757812 109.24219 C 30.602024 121.0864 47.249756 127.98056 64 127.98047 C 80.750244 127.98056 97.397979 121.0864 109.24219 109.24219 C 121.0864 97.397978 127.98056 80.750244 127.98047 64 C 127.98056 47.249756 121.0864 30.602024 109.24219 18.757812 C 97.397978 6.9136018 80.750244 0.01944255 64 0.01953125 z M 64 20 A 44 44 0 0 1 108 64 A 44 44 0 0 1 64 108 A 44 44 0 0 1 20 64 A 44 44 0 0 1 64 20 z "
       style="opacity:1;fill:url(#linearGradient856);fill-opacity:1;stroke:none;stroke-width:6.1673317;stroke-linecap:square;stroke-linejoin:bevel;stroke-miterlimit:4;stroke-dasharray:none;stroke-dashoffset:0;stroke-opacity:1" />
    <path
       id="circle20802"
       d="M 64 4 C 30.862842 3.9998244 3.9998244 30.862842 4 64 C 3.9998244 97.137158 30.862842 124.00018 64 124 C 97.137158 124.00018 124.00018 97.137158 124 64 C 124.00018 30.862842 97.137158 3.9998244 64 4 z M 64 16 A 48 48 0 0 1 112 64 A 48 48 0 0 1 64 112 A 48 48 0 0 1 16 64 A 48 48 0 0 1 64 16 z "
       style="opacity:1;fill:url(#linearGradient865);fill-opacity:1;stroke:none;stroke-width:6.06831598;stroke-linecap:square;stroke-linejoin:bevel;stroke-miterlimit:4;stroke-dasharray:none;stroke-dashoffset:0;stroke-opacity:1" />
  </g>
</svg>
